static/img/kroki/7c8027aa54270a3a72c8f1b941303f74.svg

<?xml version="1.0" encoding="us-ascii" standalone="no"?><svg xmlns="http://www.w3.org/2000/svg" xmlns:xlink="http://www.w3.org/1999/xlink" contentStyleType="text/css" height="252px" preserveAspectRatio="none" style="width:1773px;height:252px;" version="1.1" viewBox="0 0 1773 252" width="1773px" zoomAndPan="magnify"><defs/><g><!--class azure_network_express_route_gateway--><g id="elem_azure_network_express_route_gateway"><rect codeLine="23" fill="#3D176E" height="39.7891" id="azure_network_express_route_gateway" rx="2.5" ry="2.5" style="stroke:#000D19;stroke-width:0.5;" width="374" x="7" y="7"/><ellipse cx="22" cy="26.8945" fill="#ADD1B2" rx="11" ry="11" style="stroke:#181818;stroke-width:1.0;"/><path d="M24.9688,32.5352 Q24.3906,32.832 23.75,32.9727 Q23.1094,33.1289 22.4063,33.1289 Q19.9063,33.1289 18.5781,31.4883 Q17.2656,29.832 17.2656,26.707 Q17.2656,23.582 18.5781,21.9258 Q19.9063,20.2695 22.4063,20.2695 Q23.1094,20.2695 23.75,20.4258 Q24.4063,20.582 24.9688,20.8789 L24.9688,23.5977 Q24.3438,23.0195 23.75,22.7539 Q23.1563,22.4727 22.5313,22.4727 Q21.1875,22.4727 20.5,23.5508 Q19.8125,24.6133 19.8125,26.707 Q19.8125,28.8008 20.5,29.8789 Q21.1875,30.9414 22.5313,30.9414 Q23.1563,30.9414 23.75,30.6758 Q24.3438,30.3945 24.9688,29.8164 L24.9688,32.5352 Z " fill="#000000"/><text fill="#D9B8FF" font-family="Helvetica" font-size="17" lengthAdjust="spacing" textLength="332" x="41" y="32.7798">azure_network_express_route_gateway</text></g><!--class azure_network_firewall--><g id="elem_azure_network_firewall"><rect codeLine="26" fill="#3D176E" height="39.7891" id="azure_network_firewall" rx="2.5" ry="2.5" style="stroke:#000D19;stroke-width:0.5;" width="239" x="415.5" y="7"/><ellipse cx="430.5" cy="26.8945" fill="#ADD1B2" rx="11" ry="11" style="stroke:#181818;stroke-width:1.0;"/><path d="M433.4688,32.5352 Q432.8906,32.832 432.25,32.9727 Q431.6094,33.1289 430.9063,33.1289 Q428.4063,33.1289 427.0781,31.4883 Q425.7656,29.832 425.7656,26.707 Q425.7656,23.582 427.0781,21.9258 Q428.4063,20.2695 430.9063,20.2695 Q431.6094,20.2695 432.25,20.4258 Q432.9063,20.582 433.4688,20.8789 L433.4688,23.5977 Q432.8438,23.0195 432.25,22.7539 Q431.6563,22.4727 431.0313,22.4727 Q429.6875,22.4727 429,23.5508 Q428.3125,24.6133 428.3125,26.707 Q428.3125,28.8008 429,29.8789 Q429.6875,30.9414 431.0313,30.9414 Q431.6563,30.9414 432.25,30.6758 Q432.8438,30.3945 433.4688,29.8164 L433.4688,32.5352 Z " fill="#000000"/><text fill="#D9B8FF" font-family="Helvetica" font-size="17" lengthAdjust="spacing" textLength="197" x="449.5" y="32.7798">azure_network_firewall</text></g><!--class azure_network_p2_s_vpn_gateway--><g id="elem_azure_network_p2_s_vpn_gateway"><rect codeLine="29" fill="#3D176E" height="39.7891" id="azure_network_p2_s_vpn_gateway" rx="2.5" ry="2.5" style="stroke:#000D19;stroke-width:0.5;" width="335" x="689.5" y="7"/><ellipse cx="704.5" cy="26.8945" fill="#ADD1B2" rx="11" ry="11" style="stroke:#181818;stroke-width:1.0;"/><path d="M707.4688,32.5352 Q706.8906,32.832 706.25,32.9727 Q705.6094,33.1289 704.9063,33.1289 Q702.4063,33.1289 701.0781,31.4883 Q699.7656,29.832 699.7656,26.707 Q699.7656,23.582 701.0781,21.9258 Q702.4063,20.2695 704.9063,20.2695 Q705.6094,20.2695 706.25,20.4258 Q706.9063,20.582 707.4688,20.8789 L707.4688,23.5977 Q706.8438,23.0195 706.25,22.7539 Q705.6563,22.4727 705.0313,22.4727 Q703.6875,22.4727 703,23.5508 Q702.3125,24.6133 702.3125,26.707 Q702.3125,28.8008 703,29.8789 Q703.6875,30.9414 705.0313,30.9414 Q705.6563,30.9414 706.25,30.6758 Q706.8438,30.3945 707.4688,29.8164 L707.4688,32.5352 Z " fill="#000000"/><text fill="#D9B8FF" font-family="Helvetica" font-size="17" lengthAdjust="spacing" textLength="293" x="723.5" y="32.7798">azure_network_p2_s_vpn_gateway</text></g><!--class azure_network_public_ip_address--><g id="elem_azure_network_public_ip_address"><rect codeLine="32" fill="#3D176E" height="39.7891" id="azure_network_public_ip_address" rx="2.5" ry="2.5" style="stroke:#000D19;stroke-width:0.5;" width="321" x="696.5" y="206.58"/><ellipse cx="711.5" cy="226.4745" fill="#ADD1B2" rx="11" ry="11" style="stroke:#181818;stroke-width:1.0;"/><path d="M714.4688,232.1152 Q713.8906,232.412 713.25,232.5527 Q712.6094,232.7089 711.9063,232.7089 Q709.4063,232.7089 708.0781,231.0683 Q706.7656,229.412 706.7656,226.287 Q706.7656,223.162 708.0781,221.5058 Q709.4063,219.8495 711.9063,219.8495 Q712.6094,219.8495 713.25,220.0058 Q713.9063,220.162 714.4688,220.4589 L714.4688,223.1777 Q713.8438,222.5995 713.25,222.3339 Q712.6563,222.0527 712.0313,222.0527 Q710.6875,222.0527 710,223.1308 Q709.3125,224.1933 709.3125,226.287 Q709.3125,228.3808 710,229.4589 Q710.6875,230.5214 712.0313,230.5214 Q712.6563,230.5214 713.25,230.2558 Q713.8438,229.9745 714.4688,229.3964 L714.4688,232.1152 Z " fill="#000000"/><text fill="#D9B8FF" font-family="Helvetica" font-size="17" lengthAdjust="spacing" textLength="279" x="730.5" y="232.3598">azure_network_public_ip_address</text></g><!--class azure_network_virtual_hub--><g id="elem_azure_network_virtual_hub"><rect codeLine="35" fill="#3D176E" height="39.7891" id="azure_network_virtual_hub" rx="2.5" ry="2.5" style="stroke:#000D19;stroke-width:0.5;" width="272" x="721" y="106.79"/><ellipse cx="736" cy="126.6845" fill="#ADD1B2" rx="11" ry="11" style="stroke:#181818;stroke-width:1.0;"/><path d="M738.9688,132.3252 Q738.3906,132.622 737.75,132.7627 Q737.1094,132.9189 736.4063,132.9189 Q733.9063,132.9189 732.5781,131.2783 Q731.2656,129.622 731.2656,126.497 Q731.2656,123.372 732.5781,121.7158 Q733.9063,120.0595 736.4063,120.0595 Q737.1094,120.0595 737.75,120.2158 Q738.4063,120.372 738.9688,120.6689 L738.9688,123.3877 Q738.3438,122.8095 737.75,122.5439 Q737.1563,122.2627 736.5313,122.2627 Q735.1875,122.2627 734.5,123.3408 Q733.8125,124.4033 733.8125,126.497 Q733.8125,128.5908 734.5,129.6689 Q735.1875,130.7314 736.5313,130.7314 Q737.1563,130.7314 737.75,130.4658 Q738.3438,130.1845 738.9688,129.6064 L738.9688,132.3252 Z " fill="#000000"/><text fill="#D9B8FF" font-family="Helvetica" font-size="17" lengthAdjust="spacing" textLength="230" x="755" y="132.5698">azure_network_virtual_hub</text></g><!--class azure_network_virtual_wan--><g id="elem_azure_network_virtual_wan"><rect codeLine="38" fill="#3D176E" height="39.7891" id="azure_network_virtual_wan" rx="2.5" ry="2.5" style="stroke:#000D19;stroke-width:0.5;" width="276" x="1059" y="7"/><ellipse cx="1074" cy="26.8945" fill="#ADD1B2" rx="11" ry="11" style="stroke:#181818;stroke-width:1.0;"/><path d="M1076.9688,32.5352 Q1076.3906,32.832 1075.75,32.9727 Q1075.1094,33.1289 1074.4063,33.1289 Q1071.9063,33.1289 1070.5781,31.4883 Q1069.2656,29.832 1069.2656,26.707 Q1069.2656,23.582 1070.5781,21.9258 Q1071.9063,20.2695 1074.4063,20.2695 Q1075.1094,20.2695 1075.75,20.4258 Q1076.4063,20.582 1076.9688,20.8789 L1076.9688,23.5977 Q1076.3438,23.0195 1075.75,22.7539 Q1075.1563,22.4727 1074.5313,22.4727 Q1073.1875,22.4727 1072.5,23.5508 Q1071.8125,24.6133 1071.8125,26.707 Q1071.8125,28.8008 1072.5,29.8789 Q1073.1875,30.9414 1074.5313,30.9414 Q1075.1563,30.9414 1075.75,30.6758 Q1076.3438,30.3945 1076.9688,29.8164 L1076.9688,32.5352 Z " fill="#000000"/><text fill="#D9B8FF" font-family="Helvetica" font-size="17" lengthAdjust="spacing" textLength="234" x="1093" y="32.7798">azure_network_virtual_wan</text></g><!--class azure_network_virtual_wan_vpn_gateway--><g id="elem_azure_network_virtual_wan_vpn_gateway"><rect codeLine="41" fill="#3D176E" height="39.7891" id="azure_network_virtual_wan_vpn_gateway" rx="2.5" ry="2.5" style="stroke:#000D19;stroke-width:0.5;" width="397" x="1369.5" y="7"/><ellipse cx="1384.5" cy="26.8945" fill="#ADD1B2" rx="11" ry="11" style="stroke:#181818;stroke-width:1.0;"/><path d="M1387.4688,32.5352 Q1386.8906,32.832 1386.25,32.9727 Q1385.6094,33.1289 1384.9063,33.1289 Q1382.4063,33.1289 1381.0781,31.4883 Q1379.7656,29.832 1379.7656,26.707 Q1379.7656,23.582 1381.0781,21.9258 Q1382.4063,20.2695 1384.9063,20.2695 Q1385.6094,20.2695 1386.25,20.4258 Q1386.9063,20.582 1387.4688,20.8789 L1387.4688,23.5977 Q1386.8438,23.0195 1386.25,22.7539 Q1385.6563,22.4727 1385.0313,22.4727 Q1383.6875,22.4727 1383,23.5508 Q1382.3125,24.6133 1382.3125,26.707 Q1382.3125,28.8008 1383,29.8789 Q1383.6875,30.9414 1385.0313,30.9414 Q1385.6563,30.9414 1386.25,30.6758 Q1386.8438,30.3945 1387.4688,29.8164 L1387.4688,32.5352 Z " fill="#000000"/><text fill="#D9B8FF" font-family="Helvetica" font-size="17" lengthAdjust="spacing" textLength="355" x="1403.5" y="32.7798">azure_network_virtual_wan_vpn_gateway</text></g><!--link azure_network_express_route_gateway to azure_network_virtual_hub--><g id="link_azure_network_express_route_gateway_azure_network_virtual_hub"><path codeLine="44" d="M325.38,47.28 C441.37,64.38 603.6642,88.3249 719.6542,105.4249 " fill="none" id="azure_network_express_route_gateway-to-azure_network_virtual_hub" style="stroke:#1A83AF;stroke-width:2.0;"/><polygon fill="#1A83AF" points="725.59,106.3,717.2696,101.0301,720.6435,105.5707,716.1028,108.9446,725.59,106.3" style="stroke:#1A83AF;stroke-width:2.0;"/></g><!--link azure_network_firewall to azure_network_virtual_hub--><g id="link_azure_network_firewall_azure_network_virtual_hub"><path codeLine="45" d="M598.62,47.22 C654.98,64.33 731.099,87.4463 787.499,104.5763 " fill="none" id="azure_network_firewall-to-azure_network_virtual_hub" style="stroke:#1A83AF;stroke-width:2.0;"/><polygon fill="#1A83AF" points="793.24,106.32,785.7909,99.8771,788.4558,104.8669,783.466,107.5318,793.24,106.32" style="stroke:#1A83AF;stroke-width:2.0;"/></g><!--link azure_network_p2_s_vpn_gateway to azure_network_virtual_hub--><g id="link_azure_network_p2_s_vpn_gateway_azure_network_virtual_hub"><path codeLine="46" d="M857,47.22 C857,64.36 857,83.27 857,100.41 " fill="none" id="azure_network_p2_s_vpn_gateway-to-azure_network_virtual_hub" style="stroke:#1A83AF;stroke-width:2.0;"/><polygon fill="#1A83AF" points="857,106.41,861,97.41,857,101.41,853,97.41,857,106.41" style="stroke:#1A83AF;stroke-width:2.0;"/></g><!--link azure_network_virtual_hub to azure_network_public_ip_address--><g id="link_azure_network_virtual_hub_azure_network_public_ip_address"><path codeLine="47" d="M857,147.01 C857,164.15 857,183.06 857,200.2 " fill="none" id="azure_network_virtual_hub-to-azure_network_public_ip_address" style="stroke:#1A83AF;stroke-width:2.0;"/><polygon fill="#1A83AF" points="857,206.2,861,197.2,857,201.2,853,197.2,857,206.2" style="stroke:#1A83AF;stroke-width:2.0;"/></g><!--link azure_network_virtual_wan to azure_network_virtual_hub--><g id="link_azure_network_virtual_wan_azure_network_virtual_hub"><path codeLine="48" d="M1129.83,47.22 C1070.32,64.33 989.6462,87.5316 930.0862,104.6616 " fill="none" id="azure_network_virtual_wan-to-azure_network_virtual_hub" style="stroke:#1A83AF;stroke-width:2.0;"/><polygon fill="#1A83AF" points="924.32,106.32,934.075,107.6765,929.1252,104.938,931.8638,99.9882,924.32,106.32" style="stroke:#1A83AF;stroke-width:2.0;"/></g><!--link azure_network_virtual_wan_vpn_gateway to azure_network_virtual_hub--><g id="link_azure_network_virtual_wan_vpn_gateway_azure_network_virtual_hub"><path codeLine="49" d="M1427.1,47.28 C1301.2,64.59 1123.844,88.9822 999.334,106.1122 " fill="none" id="azure_network_virtual_wan_vpn_gateway-to-azure_network_virtual_hub" style="stroke:#1A83AF;stroke-width:2.0;"/><polygon fill="#1A83AF" points="993.39,106.93,1002.8512,109.666,998.3433,106.2485,1001.7608,101.7407,993.39,106.93" style="stroke:#1A83AF;stroke-width:2.0;"/></g><!--SRC=[fPBHJi8m58RlznHDk2PX40LkJ924w0qnufqnJRUUiMPTkvnsJ32-kvkegIjZH6zxlltzpj-bWWE1lB1xaaCU0Ph0P48L35bE5eYwMcgfaGoIX2MJQNkuqihs0ckM0xa3kGChOjOcdb8HPmgC8MDdTClYR8kwLFmORv4fKuz0MOTQIcRCmbeKKMd1aU7pQ9OaRR8TEfZmS7eD7gQH0tuXez68X_CsqdlLsRr_Y8qu00dTqjRQWgVfNV59dRLi24VIM_Hxtkdum3WNQakkdBF7enCgm5_dcvHnNJLqmgHnhp4M4BJT5x3qjeBvZ2VJa_1z5np4JNM47Ke4gi1M6ZCAhmNM_m-jUGjqoonKR4_UWk3z99u8h04fkubYJ0tT5Qe_goWZAM8g2bhNrKXqepk1jcIIfcNK3rLCNGJvbfTKCtmUX8lPPB5w6TvqMmOTjVtfQw_IFwMu7Pu9y5ubw6xvNnxj5xWmx0C0]--></g></svg>

<svg xmlns="http://www.w3.org/2000/svg" width="1773" height="252" viewBox="0 0 1773 252"><rect width="374" height="39.789" x="7" y="7" fill="#3D176E" rx="2.5" ry="2.5" style="stroke:#000d19;stroke-width:.5"/><circle cx="22" cy="26.895" r="11" fill="#ADD1B2" style="stroke:#181818;stroke-width:1"/><path d="M24.969 32.535q-.578.297-1.219.438-.64.156-1.344.156-2.5 0-3.828-1.64-1.312-1.657-1.312-4.782t1.312-4.781q1.328-1.656 3.828-1.656.703 0 1.344.156.656.156 1.219.453v2.719q-.625-.578-1.219-.844-.594-.281-1.219-.281-1.343 0-2.031 1.078-.687 1.062-.687 3.156t.687 3.172q.688 1.062 2.031 1.062.625 0 1.219-.265.594-.281 1.219-.86z"/><text x="41" y="32.78" fill="#D9B8FF" font-family="Helvetica" font-size="17" textLength="332">azure_network_express_route_gateway</text><rect width="239" height="39.789" x="415.5" y="7" fill="#3D176E" rx="2.5" ry="2.5" style="stroke:#000d19;stroke-width:.5"/><circle cx="430.5" cy="26.895" r="11" fill="#ADD1B2" style="stroke:#181818;stroke-width:1"/><path d="M433.469 32.535q-.578.297-1.219.438-.64.156-1.344.156-2.5 0-3.828-1.64-1.312-1.657-1.312-4.782t1.312-4.781q1.328-1.656 3.828-1.656.703 0 1.344.156.656.156 1.219.453v2.719q-.625-.578-1.219-.844-.594-.281-1.219-.281-1.344 0-2.031 1.078-.687 1.062-.687 3.156t.687 3.172q.688 1.062 2.031 1.062.625 0 1.219-.265.594-.281 1.219-.86z"/><text x="449.5" y="32.78" fill="#D9B8FF" font-family="Helvetica" font-size="17" textLength="197">azure_network_firewall</text><rect width="335" height="39.789" x="689.5" y="7" fill="#3D176E" rx="2.5" ry="2.5" style="stroke:#000d19;stroke-width:.5"/><circle cx="704.5" cy="26.895" r="11" fill="#ADD1B2" style="stroke:#181818;stroke-width:1"/><path d="M707.469 32.535q-.578.297-1.219.438-.64.156-1.344.156-2.5 0-3.828-1.64-1.312-1.657-1.312-4.782t1.312-4.781q1.328-1.656 3.828-1.656.703 0 1.344.156.656.156 1.219.453v2.719q-.625-.578-1.219-.844-.594-.281-1.219-.281-1.343 0-2.031 1.078-.687 1.062-.687 3.156t.687 3.172q.688 1.062 2.031 1.062.625 0 1.219-.265.594-.281 1.219-.86z"/><text x="723.5" y="32.78" fill="#D9B8FF" font-family="Helvetica" font-size="17" textLength="293">azure_network_p2_s_vpn_gateway</text><rect width="321" height="39.789" x="696.5" y="206.58" fill="#3D176E" rx="2.5" ry="2.5" style="stroke:#000d19;stroke-width:.5"/><circle cx="711.5" cy="226.475" r="11" fill="#ADD1B2" style="stroke:#181818;stroke-width:1"/><path d="M714.469 232.115q-.578.297-1.219.438-.64.156-1.344.156-2.5 0-3.828-1.64-1.312-1.657-1.312-4.782t1.312-4.781q1.328-1.656 3.828-1.656.703 0 1.344.156.656.156 1.219.453v2.719q-.625-.578-1.219-.844-.594-.281-1.219-.281-1.343 0-2.031 1.078-.687 1.062-.687 3.156t.687 3.172q.688 1.062 2.031 1.062.625 0 1.219-.265.594-.281 1.219-.86z"/><text x="730.5" y="232.36" fill="#D9B8FF" font-family="Helvetica" font-size="17" textLength="279">azure_network_public_ip_address</text><rect width="272" height="39.789" x="721" y="106.79" fill="#3D176E" rx="2.5" ry="2.5" style="stroke:#000d19;stroke-width:.5"/><circle cx="736" cy="126.684" r="11" fill="#ADD1B2" style="stroke:#181818;stroke-width:1"/><path d="M738.969 132.325q-.578.297-1.219.438-.64.156-1.344.156-2.5 0-3.828-1.64-1.312-1.657-1.312-4.782t1.312-4.781q1.328-1.656 3.828-1.656.703 0 1.344.156.656.156 1.219.453v2.719q-.625-.579-1.219-.844-.594-.281-1.219-.281-1.343 0-2.031 1.078-.687 1.062-.687 3.156t.687 3.172q.688 1.062 2.031 1.062.625 0 1.219-.265.594-.281 1.219-.86z"/><text x="755" y="132.57" fill="#D9B8FF" font-family="Helvetica" font-size="17" textLength="230">azure_network_virtual_hub</text><rect width="276" height="39.789" x="1059" y="7" fill="#3D176E" rx="2.5" ry="2.5" style="stroke:#000d19;stroke-width:.5"/><circle cx="1074" cy="26.895" r="11" fill="#ADD1B2" style="stroke:#181818;stroke-width:1"/><path d="M1076.969 32.535q-.578.297-1.219.438-.64.156-1.344.156-2.5 0-3.828-1.64-1.312-1.657-1.312-4.782t1.312-4.781q1.328-1.656 3.828-1.656.703 0 1.344.156.656.156 1.219.453v2.719q-.625-.578-1.219-.844-.594-.281-1.219-.281-1.343 0-2.031 1.078-.687 1.062-.687 3.156t.687 3.172q.688 1.062 2.031 1.062.625 0 1.219-.265.594-.281 1.219-.86z"/><text x="1093" y="32.78" fill="#D9B8FF" font-family="Helvetica" font-size="17" textLength="234">azure_network_virtual_wan</text><rect width="397" height="39.789" x="1369.5" y="7" fill="#3D176E" rx="2.5" ry="2.5" style="stroke:#000d19;stroke-width:.5"/><circle cx="1384.5" cy="26.895" r="11" fill="#ADD1B2" style="stroke:#181818;stroke-width:1"/><path d="M1387.469 32.535q-.578.297-1.219.438-.64.156-1.344.156-2.5 0-3.828-1.64-1.312-1.657-1.312-4.782t1.312-4.781q1.328-1.656 3.828-1.656.703 0 1.344.156.656.156 1.219.453v2.719q-.625-.578-1.219-.844-.594-.281-1.219-.281-1.343 0-2.031 1.078-.687 1.062-.687 3.156t.687 3.172q.688 1.062 2.031 1.062.625 0 1.219-.265.594-.281 1.219-.86z"/><text x="1403.5" y="32.78" fill="#D9B8FF" font-family="Helvetica" font-size="17" textLength="355">azure_network_virtual_wan_vpn_gateway</text><path fill="none" d="M325.38 47.28c115.99 17.1 278.284 41.045 394.274 58.145" style="stroke:#1a83af;stroke-width:2"/><path fill="#1A83AF" d="m725.59 106.3-8.32-5.27 3.374 4.54-4.541 3.375z" style="stroke:#1a83af;stroke-width:2"/><path fill="none" d="M598.62 47.22c56.36 17.11 132.479 40.226 188.879 57.356" style="stroke:#1a83af;stroke-width:2"/><path fill="#1A83AF" d="m793.24 106.32-7.45-6.443 2.666 4.99-4.99 2.665z" style="stroke:#1a83af;stroke-width:2"/><path fill="none" d="M857 47.22v53.19" style="stroke:#1a83af;stroke-width:2"/><path fill="#1A83AF" d="m857 106.41 4-9-4 4-4-4z" style="stroke:#1a83af;stroke-width:2"/><path fill="none" d="M857 147.01v53.19" style="stroke:#1a83af;stroke-width:2"/><path fill="#1A83AF" d="m857 206.2 4-9-4 4-4-4z" style="stroke:#1a83af;stroke-width:2"/><path fill="none" d="M1129.83 47.22c-59.51 17.11-140.184 40.312-199.744 57.442" style="stroke:#1a83af;stroke-width:2"/><path fill="#1A83AF" d="m924.32 106.32 9.755 1.357-4.95-2.739 2.739-4.95z" style="stroke:#1a83af;stroke-width:2"/><path fill="none" d="M1427.1 47.28c-125.9 17.31-303.256 41.702-427.766 58.832" style="stroke:#1a83af;stroke-width:2"/><path fill="#1A83AF" d="m993.39 106.93 9.461 2.736-4.508-3.417 3.418-4.508z" style="stroke:#1a83af;stroke-width:2"/></svg>
